papirus/48x48/apps/diodon.svg

<?xml version="1.0" encoding="UTF-8" standalone="no"?>
<!-- Created with Inkscape (http://www.inkscape.org/) -->
<svg id="svg2817" xmlns:rdf="http://www.w3.org/1999/02/22-rdf-syntax-ns#" xmlns="http://www.w3.org/2000/svg" height="48" width="48" version="1.0" xmlns:cc="http://creativecommons.org/ns#" xmlns:xlink="http://www.w3.org/1999/xlink" xmlns:dc="http://purl.org/dc/elements/1.1/">
 <metadata id="metadata57">
  <rdf:RDF>
   <cc:Work rdf:about="">
    <dc:format>image/svg+xml</dc:format>
    <dc:type rdf:resource="http://purl.org/dc/dcmitype/StillImage"/>
    <dc:title/>
   </cc:Work>
  </rdf:RDF>
 </metadata>
 <defs id="defs2819">
  <linearGradient id="linearGradient4343" y2="188" gradientUnits="userSpaceOnUse" x2="160" gradientTransform="translate(-136,-160)" y1="172" x1="144">
   <stop id="stop4187" offset="0"/>
   <stop id="stop4189" stop-opacity="0" offset="1"/>
  </linearGradient>
  <linearGradient id="linearGradient4296" y2="203" gradientUnits="userSpaceOnUse" x2="127" gradientTransform="matrix(0 -1 1 0 -164 167)" y1="203" x1="143">
   <stop id="stop4271" stop-color="#fff" offset="0"/>
   <stop id="stop4273" stop-color="#fff" stop-opacity="0" offset="1"/>
  </linearGradient>
 </defs>
 <path id="rect4203" fill="#d0dade" d="m16 8v10c0 1.1046-0.89543 2-2 2h-10v18c0 1.108 0.892 2 2 2h36c1.108 0 2-0.892 2-2v-28c0-1.108-0.892-2-2-2h-26z"/>
 <path id="path4262" opacity=".3" d="m6 40c-1.108 0-2-0.892-2-2v-1c0 1.108 0.892 2 2 2h36c1.108 0 2-0.892 2-2v1c0 1.108-0.892 2-2 2h-36z"/>
 <path id="path4335" opacity=".2" d="m16 8-3 9-9 3 14 18 14-14z" fill="url(#linearGradient4343)"/>
 <path id="path4294" opacity=".1" d="m4 24v13c0 1.108 0.892 2 2 2h36c1.108 0 2-0.892 2-2v-13h-40z" fill="url(#linearGradient4296)"/>
 <path id="path4240" style="enable-background:new" d="m16 8v10c0 1.1046-0.89543 2-2 2h-10l12-12z" fill="#bfcbd0"/>
 <g id="g4227-9" fill="#6e6e6e" transform="matrix(.044742 0 0 .044215 17.546 2.6811)">
  <path id="path4229" d="m97.344 482.17c-23.311 0-45.215-9.084-61.689-25.555-34.01-34.014-34.01-89.361 0-123.37l269.68-269.71c21.727-21.75 50.645-33.713 81.39-33.713 30.75 0 59.667 11.963 81.395 33.713 15.573 15.57 26.136 35.797 30.879 56.755h-33.388c-3.89-12.73-10.87-24.008-20.55-33.69-15.58-15.58-36.29-24.154-58.33-24.154-22.029 0-42.74 8.574-58.323 24.154l-269.68 269.7c-21.283 21.301-21.283 55.938 0 77.234 20.645 20.617 56.589 20.617 77.233 0l181.09-181.1c4.924-4.924 7.745-11.74 7.745-18.688 0-7.045-2.755-13.686-7.759-18.689-10.291-10.291-27.067-10.322-37.358 0l-123.68 123.69c-6.37 6.375-16.697 6.375-23.067 0-6.374-6.371-6.374-16.697 0-23.066l123.68-123.68c23.005-23.004 60.461-23.004 83.497 0 11.169 11.166 17.317 26 17.317 41.756 0 15.547-6.308 30.762-17.3 41.754l-181.09 181.11c-16.47 16.47-38.38 25.55-61.686 25.55z" fill="#6e6e6e"/>
 </g>
</svg>

<?xml version="1.0" encoding="UTF-8" standalone="no"?>
<!-- Created with Inkscape (http://www.inkscape.org/) -->

<svg
   xmlns:dc="http://purl.org/dc/elements/1.1/"
   xmlns:cc="http://creativecommons.org/ns#"
   xmlns:rdf="http://www.w3.org/1999/02/22-rdf-syntax-ns#"
   xmlns:svg="http://www.w3.org/2000/svg"
   xmlns="http://www.w3.org/2000/svg"
   xmlns:xlink="http://www.w3.org/1999/xlink"
   xmlns:sodipodi="http://sodipodi.sourceforge.net/DTD/sodipodi-0.dtd"
   xmlns:inkscape="http://www.inkscape.org/namespaces/inkscape"
   id="svg2817"
   height="48"
   width="48"
   version="1.0"
   inkscape:version="0.91 r"
   sodipodi:docname="diodon.svg">
  <metadata
     id="metadata57">
    <rdf:RDF>
      <cc:Work
         rdf:about="">
        <dc:format>image/svg+xml</dc:format>
        <dc:type
           rdf:resource="http://purl.org/dc/dcmitype/StillImage" />
        <dc:title />
      </cc:Work>
    </rdf:RDF>
  </metadata>
  <sodipodi:namedview
     pagecolor="#ffffff"
     bordercolor="#666666"
     borderopacity="1"
     objecttolerance="10"
     gridtolerance="10"
     guidetolerance="10"
     inkscape:pageopacity="0"
     inkscape:pageshadow="2"
     inkscape:window-width="1600"
     inkscape:window-height="840"
     id="namedview55"
     showgrid="false"
     inkscape:zoom="11.42"
     inkscape:cx="-1.7232926"
     inkscape:cy="19.211244"
     inkscape:window-x="-4"
     inkscape:window-y="34"
     inkscape:window-maximized="1"
     inkscape:current-layer="svg2817" />
  <defs
     id="defs2819">
    <linearGradient
       inkscape:collect="always"
       id="linearGradient4185">
      <stop
         style="stop-color:#000000;stop-opacity:1;"
         offset="0"
         id="stop4187" />
      <stop
         style="stop-color:#000000;stop-opacity:0;"
         offset="1"
         id="stop4189" />
    </linearGradient>
    <linearGradient
       id="linearGradient2815"
       y2="17.5"
       spreadMethod="reflect"
       gradientUnits="userSpaceOnUse"
       x2="3.0052"
       y1="17.5"
       x1="44.995">
      <stop
         id="stop3277"
         style="stop-color:#fff;stop-opacity:0"
         offset="0" />
      <stop
         id="stop3283"
         style="stop-color:#fff"
         offset=".245" />
      <stop
         id="stop3285"
         style="stop-color:#fff"
         offset=".77350" />
      <stop
         id="stop3279"
         style="stop-color:#fff;stop-opacity:0"
         offset="1" />
    </linearGradient>
    <linearGradient
       id="linearGradient2813"
       y2="8"
       gradientUnits="userSpaceOnUse"
       x2="26"
       y1="22"
       x1="26">
      <stop
         id="stop3829"
         style="stop-color:#fff"
         offset="0" />
      <stop
         id="stop4295"
         style="stop-color:#fff"
         offset=".30213" />
      <stop
         id="stop4293"
         style="stop-color:#fff;stop-opacity:.69020"
         offset=".34361" />
      <stop
         id="stop3832"
         style="stop-color:#fff;stop-opacity:0"
         offset="1" />
    </linearGradient>
    <linearGradient
       id="linearGradient2811"
       y2="45.934"
       gradientUnits="userSpaceOnUse"
       x2="43.007"
       gradientTransform="matrix(1.2822 0 0 1.1747 -6.0702 -5.3032)"
       y1="30.555"
       x1="23.452">
      <stop
         id="stop4561"
         style="stop-color:#fff;stop-opacity:0"
         offset="0" />
      <stop
         id="stop4563"
         style="stop-color:#fff;stop-opacity:0"
         offset="1" />
    </linearGradient>
    <linearGradient
       id="linearGradient2809"
       y2="45.042"
       gradientUnits="userSpaceOnUse"
       x2="15.464"
       y1="7.9757"
       x1="15.464">
      <stop
         id="stop3297"
         style="stop-color:#c9af8b"
         offset="0" />
      <stop
         id="stop3299"
         style="stop-color:#ad8757"
         offset=".23942" />
      <stop
         id="stop3301"
         style="stop-color:#c2a57f"
         offset=".27582" />
      <stop
         id="stop3303"
         style="stop-color:#9d7d53"
         offset="1" />
    </linearGradient>
    <linearGradient
       id="linearGradient2807"
       y2="37.277"
       gradientUnits="userSpaceOnUse"
       x2="24.997"
       gradientTransform="matrix(1.2822 0 0 1.5573 -6.0702 -15.291)"
       y1="15.378"
       x1="24.823">
      <stop
         id="stop3201"
         style="stop-color:#dac197"
         offset="0" />
      <stop
         id="stop3203"
         style="stop-color:#c1a581"
         offset=".23942" />
      <stop
         id="stop3205"
         style="stop-color:#dbc298"
         offset=".27582" />
      <stop
         id="stop3207"
         style="stop-color:#a68b60"
         offset="1" />
    </linearGradient>
    <radialGradient
       id="radialGradient2805"
       xlink:href="#linearGradient3681"
       gradientUnits="userSpaceOnUse"
       cy="41.5"
       cx="5"
       gradientTransform="matrix(.59382 0 0 1.5367 41.141 -103.94)"
       r="5" />
    <linearGradient
       id="linearGradient2803"
       y2="35"
       gradientUnits="userSpaceOnUse"
       x2="17.554"
       gradientTransform="matrix(1.757 0 0 1.397 -17.394 -16.412)"
       y1="46"
       x1="17.554">
      <stop
         id="stop3705"
         style="stop-opacity:0"
         offset="0" />
      <stop
         id="stop3711"
         offset=".5" />
      <stop
         id="stop3707"
         style="stop-opacity:0"
         offset="1" />
    </linearGradient>
    <linearGradient
       id="linearGradient3681">
      <stop
         id="stop3683"
         offset="0" />
      <stop
         id="stop3685"
         style="stop-opacity:0"
         offset="1" />
    </linearGradient>
    <radialGradient
       id="radialGradient2801"
       xlink:href="#linearGradient3681"
       gradientUnits="userSpaceOnUse"
       cy="41.5"
       cx="5"
       gradientTransform="matrix(.59382 0 0 1.5367 -6.6595 -103.94)"
       r="5" />
    <linearGradient
       id="linearGradient2789"
       y2="25.411"
       gradientUnits="userSpaceOnUse"
       x2="57.726"
       gradientTransform="matrix(0 .71282 -.67402 0 50.746 15.046)"
       y1="25.411"
       x1="13.472">
      <stop
         id="stop4224"
         style="stop-color:#fff"
         offset="0" />
      <stop
         id="stop4226"
         style="stop-color:#fff;stop-opacity:0"
         offset="1" />
    </linearGradient>
    <linearGradient
       id="linearGradient2787"
       y2="20.71"
       gradientUnits="userSpaceOnUse"
       x2=".81572"
       gradientTransform="matrix(0 -.61460 -.58384 0 46.949 46.633)"
       y1="20.71"
       x1="28.315">
      <stop
         id="stop2266"
         style="stop-color:#d7e866"
         offset="0" />
      <stop
         id="stop2268"
         style="stop-color:#8cab2a"
         offset="1" />
    </linearGradient>
    <linearGradient
       inkscape:collect="always"
       xlink:href="#linearGradient4185"
       id="linearGradient4343"
       x1="144"
       y1="172"
       x2="160"
       y2="188"
       gradientUnits="userSpaceOnUse"
       gradientTransform="translate(-136,-160)" />
    <linearGradient
       inkscape:collect="always"
       xlink:href="#linearGradient4269"
       id="linearGradient4296"
       gradientUnits="userSpaceOnUse"
       x1="143.00002"
       y1="203"
       x2="127.00002"
       y2="203"
       gradientTransform="matrix(0,-1,1,0,-164,167.00002)" />
    <linearGradient
       inkscape:collect="always"
       id="linearGradient4269">
      <stop
         style="stop-color:#ffffff;stop-opacity:1;"
         offset="0"
         id="stop4271" />
      <stop
         style="stop-color:#ffffff;stop-opacity:0;"
         offset="1"
         id="stop4273" />
    </linearGradient>
  </defs>
  <g
     id="g4227"
     style="font-style:normal;font-variant:normal;font-weight:normal;font-stretch:normal;font-size:29.80191803px;line-height:125%;font-family:'Droid Naskh Shift Alt';-inkscape-font-specification:'Droid Naskh Shift Alt';letter-spacing:0px;word-spacing:0px;fill:#ffffff;fill-opacity:1;stroke:none;stroke-width:1px;stroke-linecap:butt;stroke-linejoin:miter;stroke-opacity:1"
     transform="matrix(0.99414699,0,0,1.0058875,12.585072,-0.41623521)" />
  <path
     style="fill:#d0dade;fill-opacity:1;stroke:none"
     d="m 16,8 0,10 c 0,1.10457 -0.89543,2 -2,2 L 4,20 4,38 c 0,1.108 0.892,2 2,2 l 36,0 c 1.108,0 2,-0.892 2,-2 L 44,10 C 44,8.892 43.108,8 42,8 L 16,8 Z"
     id="rect4203"
     inkscape:connector-curvature="0" />
  <path
     id="path4262"
     d="M 6,40 C 4.892,40 4,39.108 4,38 l 0,-1 c 0,1.108 0.892,2 2,2 l 36,0 c 1.108,0 2,-0.892 2,-2 l 0,1 c 0,1.108 -0.892,2 -2,2 L 6,40 Z"
     style="opacity:0.3;fill:#000000;fill-opacity:1;stroke:none"
     inkscape:connector-curvature="0" />
  <path
     style="opacity:0.2;fill:url(#linearGradient4343);fill-opacity:1;stroke:none"
     d="M 16,8 13,17 4,20 18,38 32,24 Z"
     id="path4335"
     inkscape:connector-curvature="0"
     sodipodi:nodetypes="cccccc" />
  <path
     style="opacity:0.1;fill:url(#linearGradient4296);fill-opacity:1;stroke:none"
     d="m 4,24 0,13 c 0,1.108 0.892,2 2,2 l 36,0 c 1.108,0 2,-0.892 2,-2 L 44,24 4,24 Z"
     id="path4294"
     inkscape:connector-curvature="0" />
  <path
     inkscape:connector-curvature="0"
     id="path4240"
     d="m 16,8 0,10 c 0,1.10457 -0.89543,2 -2,2 L 4,20 16,8 Z"
     style="display:inline;fill:#bfcbd0;fill-opacity:1;stroke:none;enable-background:new" />
  <g
     id="g4227-9"
     transform="matrix(0.04474214,0,0,0.04421453,17.545979,2.6810801)"
     style="fill-opacity:1;fill:#6e6e6e">
    <path
       id="path4229"
       d="m 97.344,482.17 c -23.311,0 -45.215,-9.084 -61.689,-25.555 -34.01,-34.014 -34.01,-89.361 0,-123.371 L 305.343,63.543 c 21.727,-21.75 50.645,-33.713 81.39,-33.713 30.75,0 59.667,11.963 81.395,33.713 15.57282,15.569959 26.13619,35.796745 30.87943,56.75501 l -33.38776,0 C 461.72085,107.56942 454.73993,96.291797 445.06,86.61 429.477,71.03 408.766,62.456 386.733,62.456 c -22.029,0 -42.74,8.574 -58.323,24.154 L 58.725,356.311 c -21.283,21.301 -21.283,55.938 0,77.234 20.645,20.617 56.589,20.617 77.233,0 L 317.049,252.44 c 4.924,-4.924 7.745,-11.74 7.745,-18.688 0,-7.045 -2.755,-13.686 -7.759,-18.689 -10.291,-10.291 -27.067,-10.322 -37.358,0 L 156,338.754 c -6.37,6.375 -16.697,6.375 -23.067,0 -6.374,-6.371 -6.374,-16.697 0,-23.066 L 256.606,191.997 c 23.005,-23.004 60.461,-23.004 83.497,0 11.169,11.166 17.317,26 17.317,41.756 0,15.547 -6.308,30.762 -17.3,41.754 L 159.029,456.615 C 142.555,473.086 120.65,482.17 97.344,482.17 Z"
       inkscape:connector-curvature="0"
       sodipodi:nodetypes="scccsccccscccccscccccccsccs"
       style="fill-opacity:1;fill:#6e6e6e" />
  </g>
</svg>
